X: 444
T: Monastritch  [Dm]
S: handwritten MS of unknown origin labelled "I-20"
Z: 2009 John Chambers <jc:trillian.mit.edu>
M: 2/4
L: 1/8
K: Dm
P:A
|: "Dm"D2 F2 | A2 d2 \
| A3 G | "Gm"c/B/A/G/ ^FG \
|  "Dm"=F G2 F | "A7"(3A^GF (3FED \
| "Dm"^G/=B/ A3- | "A7"A4 ::
  "Dm"D2 F2 | A2 d2 \
| A3 G | "Gm"c/B/A/G/ ^FG \
|  "Dm"=F G2 F | "A7"(3A^GF (3FED \
| "Dm"D4 |1 "A7"zA, =B,^C :|2 "C7"zC DE 
P:B
|: "F"F4 | zF GF \
| A4 | zA BA \
|  c4 | zc dc \
| "F7"_e4- | e4 \
| "Bb"d2 "F/A"c2 | "C7/G"B2 "F"A2 
| "C7"A3 G | "F"c/B/A/G/ F2 \
| "C7"G>A Bc | AF GE \
| "F"F4 |1 "C7"zC DE :|2 "A7"ZA, DF 
P:C
|: "Dm"A>F "Gm"G/A/B/G/ | "Dm"A>F "Gm"G>E | "Dm"F>D "A7"E>^C \
|1,3 "Dm"DE "A7"FG :|2 "Dm"D2 "A7"z/A,/D/F/ :|4 "Dm"D2 z2 |]



